src/_assets/sidebar/delegation.svg

<svg width="24" height="24" viewBox="0 0 24 24" fill="none" xmlns="http://www.w3.org/2000/svg">
<mask id="path-1-inside-1_357_100574" fill="white">
<path d="M14.4575 11.6612C15.1051 11.6612 15.7381 11.4658 16.2765 11.0997C16.8149 10.7336 17.2345 10.2133 17.4822 9.60455C17.7299 8.99581 17.7946 8.326 17.6681 7.67986C17.5415 7.03372 17.2295 6.44026 16.7714 5.97458C16.3133 5.50889 15.7298 5.19189 15.0946 5.06368C14.4594 4.93546 13.8011 5.0018 13.2029 5.25429C12.6048 5.50677 12.0937 5.93408 11.7343 6.48214C11.3749 7.0302 11.1833 7.67439 11.1838 8.33323C11.1843 9.21616 11.5295 10.0627 12.1434 10.6868C12.7573 11.3109 13.5897 11.6614 14.4575 11.6612Z"/>
<path d="M7.91016 18C7.91016 15.1177 10.8417 12.7813 14.4549 12.7813C18.0707 12.7813 20.9997 15.1177 20.9997 18"/>
</mask>
<path d="M7.91016 18.6H14.4549V17.4H7.91016V18.6ZM14.4549 18.6H20.9997V17.4H14.4549V18.6ZM14.4575 11.6612L14.4575 10.4612L14.4573 10.4612L14.4575 11.6612ZM11.1838 8.33323L12.3838 8.33253V8.3323L11.1838 8.33323ZM14.4575 12.8612C15.3471 12.8612 16.215 12.5927 16.9513 12.092L15.6018 10.1074C15.2612 10.3389 14.863 10.4612 14.4575 10.4612L14.4575 12.8612ZM16.9513 12.092C17.6873 11.5916 18.2578 10.8825 18.5937 10.0568L16.3707 9.15227C16.2113 9.54407 15.9426 9.87563 15.6018 10.1074L16.9513 12.092ZM18.5937 10.0568C18.9296 9.23132 19.017 8.32417 18.8457 7.44926L16.4904 7.91046C16.5722 8.32784 16.5302 8.76029 16.3707 9.15227L18.5937 10.0568ZM18.8457 7.44926C18.6744 6.57425 18.2513 5.76782 17.6269 5.13306L15.9159 6.8161C16.2077 7.11271 16.4087 7.49318 16.4904 7.91046L18.8457 7.44926ZM17.6269 5.13306C17.0023 4.49807 16.204 4.06342 15.332 3.8874L14.8571 6.23995C15.2555 6.32037 15.6244 6.51972 15.9159 6.8161L17.6269 5.13306ZM15.332 3.8874C14.4598 3.71136 13.5562 3.80263 12.7362 4.14875L13.6696 6.35982C14.0459 6.20096 14.4589 6.15957 14.8571 6.23995L15.332 3.8874ZM12.7362 4.14875C11.9165 4.49477 11.2195 5.07892 10.7308 5.82408L12.7378 7.14019C12.9679 6.78923 13.293 6.51878 13.6696 6.35982L12.7362 4.14875ZM10.7308 5.82408C10.2423 6.56902 9.98313 7.44251 9.98383 8.33417L12.3838 8.3323C12.3835 7.90628 12.5075 7.49137 12.7378 7.14019L10.7308 5.82408ZM9.98383 8.33393C9.98452 9.52843 10.4513 10.6778 11.2879 11.5283L12.9989 9.84529C12.6077 9.44764 12.3842 8.90389 12.3838 8.33253L9.98383 8.33393ZM11.2879 11.5283C12.1252 12.3795 13.265 12.8614 14.4577 12.8612L14.4573 10.4612C13.9143 10.4613 13.3893 10.2422 12.9989 9.84529L11.2879 11.5283ZM9.11016 18C9.11016 16.0198 11.2365 13.9813 14.4549 13.9813V11.5813C10.4468 11.5813 6.71016 14.2156 6.71016 18H9.11016ZM14.4549 13.9813C17.6755 13.9813 19.7997 16.0195 19.7997 18H22.1997C22.1997 14.2159 18.4659 11.5813 14.4549 11.5813V13.9813Z" fill="#485F7D" mask="url(#path-1-inside-1_357_100574)"/>
<path d="M6.59209 9.3124V9.8124H7.09209H8.72892C8.81056 9.8124 8.89064 9.84531 8.95104 9.90677C9.01173 9.96852 9.04734 10.0541 9.04734 10.145C9.04734 10.236 9.01173 10.3216 8.95104 10.3833C8.89064 10.4448 8.81056 10.4777 8.72892 10.4777H7.09209H6.59209V10.9777V12.643C6.59209 12.6879 6.58339 12.7321 6.5667 12.7731C6.55001 12.8141 6.52578 12.8508 6.49579 12.8813C6.46582 12.9118 6.43071 12.9355 6.39269 12.9515C6.35469 12.9675 6.31427 12.9756 6.27367 12.9756C6.23306 12.9756 6.19265 12.9675 6.15464 12.9515C6.11663 12.9355 6.08152 12.9118 6.05155 12.8813C6.02156 12.8508 5.99733 12.8141 5.98064 12.7731C5.96395 12.7321 5.95525 12.6879 5.95525 12.643V10.9777V10.4777H5.45525H3.81842C3.77781 10.4777 3.73739 10.4696 3.69939 10.4536C3.66138 10.4375 3.62627 10.4138 3.5963 10.3833C3.56631 10.3528 3.54207 10.3161 3.52539 10.2751C3.5087 10.2341 3.5 10.1899 3.5 10.145C3.5 10.1002 3.5087 10.0559 3.52539 10.0149C3.54207 9.97396 3.56631 9.93728 3.5963 9.90677C3.62627 9.87628 3.66138 9.85256 3.69939 9.83654C3.73739 9.82053 3.77781 9.8124 3.81842 9.8124H5.45525H5.95525V9.3124V7.6471C5.95525 7.55612 5.99086 7.47057 6.05155 7.40882C6.11195 7.34737 6.19203 7.31445 6.27367 7.31445C6.35531 7.31445 6.43539 7.34737 6.49579 7.40882C6.55648 7.47057 6.59209 7.55612 6.59209 7.6471V9.3124Z" stroke="#485F7D"/>
<path d="M20.3552 17.4H8.64482C8.99822 15.0443 11.4032 13.1 14.5 13.1C17.5968 13.1 20.0018 15.0443 20.3552 17.4Z" stroke="#485F7D" stroke-width="1.2"/>
</svg>

<svg xmlns="http://www.w3.org/2000/svg" width="24" height="24" fill="none"><mask id="a" fill="#fff"><path d="M14.458 11.661c.647 0 1.28-.195 1.818-.561a3.3 3.3 0 001.206-1.495 3.4 3.4 0 00.186-1.925 3.35 3.35 0 00-.897-1.705 3.26 3.26 0 00-1.676-.911 3.2 3.2 0 00-1.892.19 3.3 3.3 0 00-1.469 1.228 3.37 3.37 0 00.41 4.205 3.25 3.25 0 002.313.974M7.91 18c0-2.882 2.932-5.219 6.545-5.219C18.07 12.781 21 15.118 21 18"/></mask><path fill="#485F7D" d="M7.91 18.6h6.545v-1.2H7.91zm6.545 0H21v-1.2h-6.545zm.002-6.939v-1.2zm-3.273-3.328h1.2zm3.274 4.528c.89 0 1.757-.268 2.493-.769l-1.35-1.985c-.34.232-.738.354-1.144.354zm2.493-.769a4.5 4.5 0 001.643-2.035l-2.223-.905a2.1 2.1 0 01-.77.955zm1.643-2.035a4.6 4.6 0 00.252-2.608l-2.356.461c.082.418.04.85-.12 1.242zm.252-2.608a4.55 4.55 0 00-1.22-2.316l-1.71 1.683c.292.297.493.677.574 1.094zm-1.22-2.316a4.46 4.46 0 00-2.294-1.246l-.475 2.353c.399.08.767.28 1.059.576zm-2.294-1.246a4.4 4.4 0 00-2.596.262l.934 2.21c.376-.158.789-.2 1.187-.119zm-2.596.262a4.5 4.5 0 00-2.005 1.675l2.007 1.316c.23-.35.555-.621.932-.78zm-2.005 1.675a4.57 4.57 0 00-.747 2.51l2.4-.002c0-.426.123-.84.354-1.192zm-.747 2.51a4.56 4.56 0 001.304 3.194l1.71-1.683a2.16 2.16 0 01-.614-1.512zm1.304 3.194a4.45 4.45 0 003.17 1.333v-2.4a2.05 2.05 0 01-1.46-.616zM9.11 18c0-1.98 2.127-4.019 5.345-4.019v-2.4c-4.008 0-7.745 2.635-7.745 6.419zm5.345-4.019c3.22 0 5.345 2.039 5.345 4.019h2.4c0-3.784-3.734-6.419-7.745-6.419z" mask="url(#a)"/><path stroke="#485F7D" d="M6.592 9.312v.5H8.73c.082 0 .162.033.222.095a.34.34 0 010 .476.3.3 0 01-.222.095H6.592v2.165a.35.35 0 01-.096.238.32.32 0 01-.222.095.3.3 0 01-.222-.095.33.33 0 01-.097-.238v-2.165H3.818a.3.3 0 01-.222-.095.33.33 0 01-.096-.238.35.35 0 01.096-.238.32.32 0 01.222-.095h2.137V7.647a.34.34 0 01.097-.238.3.3 0 01.222-.095c.081 0 .161.033.222.095a.34.34 0 01.096.238z"/><path stroke="#485F7D" stroke-width="1.2" d="M20.355 17.4H8.645c.353-2.356 2.758-4.3 5.855-4.3s5.502 1.944 5.855 4.3z"/></svg>
